X:935
T:Reel 935
M:4/4
K:Dmaj
L:1/8
 (3DCD |C2ED A,3F|E>C (3CB,A, EA,A,A,|A,B,B,C B,A,EA|| (3Bcd AG FDEC:||2E>D (3DCD GEFG|AGFE D2|:Bc|d2dA  (3Bcd AF| (3FDF AF GFED|G>F (3GFE FGFA|CEA,E CEFGE:||2EDEF GBde|fdce dBAF|
